CN4T1/180/aimg/pez.svg

<svg clip-rule="evenodd" fill-rule="evenodd" stroke-linejoin="round" stroke-miterlimit="2" viewBox="0 0 185 112" xmlns="http://www.w3.org/2000/svg"><g transform="translate(-3 -52)"><path d="m185.906 69.875c-.466-.672-9.203 2.692-10.656 3.125-12.542 3.743-22.35 7.815-26.562 21.531l.187.063c-.583 1.9-.91 3.889-.094 4.469.038.026.058.065.094.093l-.719.032c-.284 3.312.36 6.465.282 9.75-.182 7.57-3 14.361 5.937 18.093 6.077 2.538 14.374.384 20.063-2.187 1.283-.58 6.776-2.187 5.718-4.5-.353-.772-3.392-2.335-4.281-3.5-3.004-3.938-2.785-8.795-7.813-10.969-3.434-1.485-9.975-1.786-13.093-3.875 1.248.032 3.063.032 5.469-.344 5.944-.929 12.457-2.385 17.406-5.906 6.747-4.801 3.95-9.841 4.875-16.406.375-2.664 5.733-5.799 3.187-9.469z"/><path d="m185.781 70.531c-.132 1.282-3.87 5.988-4.219 8.407-.904 6.276 2.468 11.65-4.5 15.968-9.762 6.051-33.351 10.368-25.874-3.031l-.844-.5c3.941-8.961 13.301-14.765 22.594-16.531 2.854-.543 5.722-1.308 8.437-2.313.999-.369 2.076-.837 3.063-1.25.467-.195 1.395-1.254 1.343-.75z" fill="#a1b6c5"/><path d="m149.5 99.813c.523.615 1.008 1.272 1.969 1.718.624.29 2.595.845 2 .5-.043-.025.339.01.375 0l-.282.531c2.344 2.375 12.394 3.371 16.469 6.032 2.504 1.634 2.738 6.634 4.688 9.094.736.929 1.902 2.067 2.843 2.812.589.465 2.802 1.067 2.063.938-2.889-.506-8.117 3.106-11.781 3.874-22.01 4.617-17.132-10.923-18.344-25.499z" fill="#a1b6c5"/><path d="m152.363 98.523c1.391-1.187 1.589-3.645 2.838-5.147 7.391-8.879 20.208-20.589 31.595-23.729l.269.754c-14.977 4.037-23.539 19.171-34.632 28.199"/><path d="m159.471 97.961c7.134-5.693 14.299-10.762 21.899-15.891l.09.129c-7.158 5.523-14.934 10.055-21.507 16.243"/><path d="m152.057 102.949c4.79 9.315 9.544 13.982 20.257 16.792l-.024.087c-10.833-2.167-15.967-7.434-20.51-16.782"/><path d="m150.61 112.487c3.503 4.451 9.851 14.866 16.657 13.999l-.002.025c-6.66 1.787-13.634-9.549-16.916-13.818"/><path d="m161.853 105.972c3.286 3.51 7.322 7.183 11.432 9.701l-.047.069c-4.242-2.493-8.242-5.885-11.59-9.484"/><path d="m97.25 52.25c-2.378.08-5.09.588-8.25 1.625-4.341 1.425-8.312 3.399-12.281 5.625-5.376 3.015-10.661 6.287-15.094 10.594-.073-.003-.145-.028-.219-.031-5.098-.206-10.214.037-15.218.812-10.469 1.622-19.546 6.427-26.032 14.844-3.324 4.315-5.761 9.769-9.5 13.719-5.214 5.507-12.303 15.915-1.375 20.781 2.529 1.126 5.313 1.766 8.157 2.156l-.219.125c7.489 12.356 24.727 13.1 37.781 13.094 33.233-.017 70.215-11.879 94.625-35.344l-1.437-2.312c-9.624 1.306-17.287-1.322-24.719-5.157-1.903-2.279-3.856-3.84-5.188-7.187-5.216-13.108-4.385-33.903-21.031-33.344z"/><path d="m96.4 53.564c5.448-.408 10.327 1.5 13.782 7.469 4.285 7.406 3.639 22.148 9.156 29.781-4.436-2.549-8.904-5.27-13.781-7.875-13.028-6.958-28.07-11.595-43.094-12.343 8.043-4.679 22.213-16.153 33.937-17.032z" fill="#a1b6c5"/><path d="m55.688 71.031c9.345.131 18.843 2.077 26.093 4.125 10.098 2.854 19.868 7.181 29.219 11.938 7.246 3.686 13.713 9.376 21.469 12 4.674 1.581 8.081.622 12.912.017-.192.434 1.703 2.187 1.742 2.444-7.518 4.009-13.99 9.834-21.592 13.757-21.694 11.198-43.284 18.603-68.094 18.626-13.41.012-30.475.189-39.343-11.469 11.188 1.332 24.022-2.084 33.75-4.875 1.138-.327 8.065-3.141 11.406-5.438 1.647 2.277 3.345 4.324 4.031 4.125l.219-1.156c-.903-1.003-1.761-2.794-2.625-4.625.06-.145.212-.311.187-.438-.2-1.049-1.437-3.154-2.75-4.437-.593-.851-1.206-1.419-1.843-1.531-3.911-.688-.315 3.456.406 4.718.299.524.684.936 1.094 1.438.007.011-.007.021 0 .031-.39.258-.835.514-1.063.688-1.813 1.381-3.855 2.493-5.969 3.343-11.539 4.643-24.511 6.199-36.843 5.657-4.73-.208-11.653-1.469-12.875-7.063-1.379-6.307 6.909-11.913 9.968-16.625 4.415-6.798 8.884-13.49 15.344-18.531 6.618-5.163 15.811-6.849 25.156-6.719z" fill="#b8cfe4"/><path d="m71.147 69.909c6.831-6.024 14.186-11.227 22.611-14.766l.014.026c-8.002 4.189-15.158 9.642-22.233 15.21"/><path d="m85.527 71.802c6.186-4.295 13.16-8.972 20.456-11.042l.025.063c-7.003 3.051-13.761 7.205-20.072 11.5"/><path d="m97.915 77.164c2.873-1.584 7.798-5.496 10.946-5.733l.024.064c-3.69 1.279-7.411 3.956-10.877 5.777"/><path d="m147.812 100.469c.014-.008.018.047.032.031-.013.006-.019.025-.032.031-.006-.014.006-.047 0-.062z"/><path d="m69.276 132.656c-1.717 8.274-.129 16.077 4.145 21.735 4.275 5.658 11.235 9.169 20.262 8.859 8.907-.307 19.185-5.542 24.675-12.568 5.49-7.025 6.193-15.841-4.05-23.307-5.099-3.716-12.517-4.954-20.172-5.174-7.654-.22-15.546.578-21.593.934-.142-.015-.837 1.783-1.558 3.876s-1.467 4.481-1.709 5.645z"/><path d="m97.433 124.625c9.003.24 17.429 2.017 21.062 8.625 11.197 20.363-23.707 34.89-39 24.937-8.314-5.411-9.766-16.279-7.656-25.156.314-1.322 1.536-4.903 2.094-7.875 5.974.321 14.914-.761 23.5-.531z" fill="#a1b6c5"/><path d="m60.276 70.943c11.49 10.903 14.926 28.226 14.52 43.502-.071 2.689-3.73 18.82-3.286 19.762l-2-.4c3.066-21.986 6.668-43.996-10.26-61.838"/><path d="m93.64 129.848c6.66 3.39 10.048 5.805 15.132 11.147l-.009.01c-5.203-4.948-8.647-6.951-15.298-9.864"/><path d="m85.239 136.819c6.024 5.025 10.937 10.712 14.434 17.806l-.408.282c-3.901-6.385-9.013-12.208-14.547-17.213"/><path d="m73.073 123.884c-.14.749-.114 1.455-.103 2.206"/><path d="m32.41 96.338c-.795-2.05.762-4.952 3.477-6.482 2.716-1.529 5.562-1.108 6.357.942.795 2.049-.762 4.951-3.478 6.481s-5.562 1.108-6.356-.941z"/></g></svg>

<?xml version="1.0" encoding="UTF-8" standalone="no"?>
<!DOCTYPE svg PUBLIC "-//W3C//DTD SVG 1.1//EN" "http://www.w3.org/Graphics/SVG/1.1/DTD/svg11.dtd">
<svg width="100%" height="100%" viewBox="0 0 185 112" version="1.1" xmlns="http://www.w3.org/2000/svg" xmlns:xlink="http://www.w3.org/1999/xlink" xml:space="preserve" xmlns:serif="http://www.serif.com/" style="fill-rule:evenodd;clip-rule:evenodd;stroke-linejoin:round;stroke-miterlimit:2;">
    <g transform="matrix(1,0,0,1,-3,-52)">
        <g>
            <path d="M185.906,69.875C185.44,69.203 176.703,72.567 175.25,73C162.708,76.743 152.9,80.815 148.688,94.531L148.875,94.594C148.292,96.494 147.965,98.483 148.781,99.063C148.819,99.089 148.839,99.128 148.875,99.156L148.156,99.188C147.872,102.5 148.516,105.653 148.438,108.938C148.256,116.508 145.438,123.299 154.375,127.031C160.452,129.569 168.749,127.415 174.438,124.844C175.721,124.264 181.214,122.657 180.156,120.344C179.803,119.572 176.764,118.009 175.875,116.844C172.871,112.906 173.09,108.049 168.062,105.875C164.628,104.39 158.087,104.089 154.969,102C156.217,102.032 158.032,102.032 160.438,101.656C166.382,100.727 172.895,99.271 177.844,95.75C184.591,90.949 181.794,85.909 182.719,79.344C183.094,76.68 188.452,73.545 185.906,69.875Z"/>
            <path d="M185.781,70.531C185.649,71.813 181.911,76.519 181.562,78.938C180.658,85.214 184.03,90.588 177.062,94.906C167.3,100.957 143.711,105.274 151.188,91.875L150.344,91.375C154.285,82.414 163.645,76.61 172.938,74.844C175.792,74.301 178.66,73.536 181.375,72.531C182.374,72.162 183.451,71.694 184.438,71.281C184.905,71.086 185.833,70.027 185.781,70.531Z" style="fill:rgb(161,182,197);"/>
            <path d="M149.5,99.813C150.023,100.428 150.508,101.085 151.469,101.531C152.093,101.821 154.064,102.376 153.469,102.031C153.426,102.006 153.808,102.041 153.844,102.031L153.562,102.562C155.906,104.937 165.956,105.933 170.031,108.594C172.535,110.228 172.769,115.228 174.719,117.688C175.455,118.617 176.621,119.755 177.562,120.5C178.151,120.965 180.364,121.567 179.625,121.438C176.736,120.932 171.508,124.544 167.844,125.312C145.834,129.929 150.712,114.389 149.5,99.813Z" style="fill:rgb(161,182,197);"/>
            <path d="M152.363,98.523C153.754,97.336 153.952,94.878 155.201,93.376C162.592,84.497 175.409,72.787 186.796,69.647L187.065,70.401C172.088,74.438 163.526,89.572 152.433,98.6"/>
            <path d="M159.471,97.961C166.605,92.268 173.77,87.199 181.37,82.07L181.46,82.199C174.302,87.722 166.526,92.254 159.953,98.442"/>
            <path d="M152.057,102.949C156.847,112.264 161.601,116.931 172.314,119.741L172.29,119.828C161.457,117.661 156.323,112.394 151.78,103.046"/>
            <path d="M150.61,112.487C154.113,116.938 160.461,127.353 167.267,126.486L167.265,126.511C160.605,128.298 153.631,116.962 150.349,112.693"/>
            <path d="M161.853,105.972C165.139,109.482 169.175,113.155 173.285,115.673L173.238,115.742C168.996,113.249 164.996,109.857 161.648,106.258"/>
            <path d="M97.25,52.25C94.872,52.33 92.16,52.838 89,53.875C84.659,55.3 80.688,57.274 76.719,59.5C71.343,62.515 66.058,65.787 61.625,70.094C61.552,70.091 61.48,70.066 61.406,70.063C56.308,69.857 51.192,70.1 46.188,70.875C35.719,72.497 26.642,77.302 20.156,85.719C16.832,90.034 14.395,95.488 10.656,99.438C5.442,104.945 -1.647,115.353 9.281,120.219C11.81,121.345 14.594,121.985 17.438,122.375L17.219,122.5C24.708,134.856 41.946,135.6 55,135.594C88.233,135.577 125.215,123.715 149.625,100.25L148.188,97.938C138.564,99.244 130.901,96.616 123.469,92.781C121.566,90.502 119.613,88.941 118.281,85.594C113.065,72.486 113.896,51.691 97.25,52.25Z"/>
            <path d="M96.4,53.564C101.848,53.156 106.727,55.064 110.182,61.033C114.467,68.439 113.821,83.181 119.338,90.814C114.902,88.265 110.434,85.544 105.557,82.939C92.529,75.981 77.487,71.344 62.463,70.596C70.506,65.917 84.676,54.443 96.4,53.564Z" style="fill:rgb(161,182,197);"/>
            <path d="M55.688,71.031C65.033,71.162 74.531,73.108 81.781,75.156C91.879,78.01 101.649,82.337 111,87.094C118.246,90.78 124.713,96.47 132.469,99.094C137.143,100.675 140.55,99.716 145.381,99.111C145.189,99.545 147.084,101.298 147.123,101.555C139.605,105.564 133.133,111.389 125.531,115.312C103.837,126.51 82.247,133.915 57.437,133.938C44.027,133.95 26.962,134.127 18.094,122.469C29.282,123.801 42.116,120.385 51.844,117.594C52.982,117.267 59.909,114.453 63.25,112.156C64.897,114.433 66.595,116.48 67.281,116.281L67.5,115.125C66.597,114.122 65.739,112.331 64.875,110.5C64.935,110.355 65.087,110.189 65.062,110.062C64.862,109.013 63.625,106.908 62.312,105.625C61.719,104.774 61.106,104.206 60.469,104.094C56.558,103.406 60.154,107.55 60.875,108.812C61.174,109.336 61.559,109.748 61.969,110.25C61.976,110.261 61.962,110.271 61.969,110.281C61.579,110.539 61.134,110.795 60.906,110.969C59.093,112.35 57.051,113.462 54.937,114.312C43.398,118.955 30.426,120.511 18.094,119.969C13.364,119.761 6.441,118.5 5.219,112.906C3.84,106.599 12.128,100.993 15.187,96.281C19.602,89.483 24.071,82.791 30.531,77.75C37.149,72.587 46.342,70.901 55.687,71.031Z" style="fill:rgb(184,207,228);"/>
            <path d="M71.147,69.909C77.978,63.885 85.333,58.682 93.758,55.143L93.772,55.169C85.77,59.358 78.614,64.811 71.539,70.379"/>
            <path d="M85.527,71.802C91.713,67.507 98.687,62.83 105.983,60.76L106.008,60.823C99.005,63.874 92.247,68.028 85.936,72.323"/>
            <path d="M97.915,77.164C100.788,75.58 105.713,71.668 108.861,71.431L108.885,71.495C105.195,72.774 101.474,75.451 98.008,77.272"/>
            <path d="M147.812,100.469C147.826,100.461 147.83,100.516 147.844,100.5C147.831,100.506 147.825,100.525 147.812,100.531C147.806,100.517 147.818,100.484 147.812,100.469Z"/>
            <path d="M69.276,132.656C67.559,140.93 69.147,148.733 73.421,154.391C77.696,160.049 84.656,163.56 93.683,163.25C102.59,162.943 112.868,157.708 118.358,150.682C123.848,143.657 124.551,134.841 114.308,127.375C109.209,123.659 101.791,122.421 94.136,122.201C86.482,121.981 78.59,122.779 72.543,123.135C72.401,123.12 71.706,124.918 70.985,127.011C70.264,129.104 69.518,131.492 69.276,132.656Z"/>
            <path d="M97.433,124.625C106.436,124.865 114.862,126.642 118.495,133.25C129.692,153.613 94.788,168.14 79.495,158.187C71.181,152.776 69.729,141.908 71.839,133.031C72.153,131.709 73.375,128.128 73.933,125.156C79.907,125.477 88.847,124.395 97.433,124.625Z" style="fill:rgb(161,182,197);"/>
            <path d="M60.276,70.943C71.766,81.846 75.202,99.169 74.796,114.445C74.725,117.134 71.066,133.265 71.51,134.207L69.51,133.807C72.576,111.821 76.178,89.811 59.25,71.969"/>
            <path d="M93.64,129.848C100.3,133.238 103.688,135.653 108.772,140.995L108.763,141.005C103.56,136.057 100.116,134.054 93.465,131.141"/>
            <path d="M85.239,136.819C91.263,141.844 96.176,147.531 99.673,154.625L99.265,154.907C95.364,148.522 90.252,142.699 84.718,137.694"/>
            <path d="M73.073,123.884C72.933,124.633 72.959,125.339 72.97,126.09"/>
            <path d="M32.41,96.338C31.615,94.288 33.172,91.386 35.887,89.856C38.603,88.327 41.449,88.748 42.244,90.798C43.039,92.847 41.482,95.749 38.766,97.279C36.05,98.809 33.204,98.387 32.41,96.338Z"/>
        </g>
    </g>
</svg>
